X:1
T:Blessèd Are They That Do
T:Blessèd Are They That Do
T:Philip Paul  Bliss
T:Philip Paul  Bliss, 1871
T:Public Domain Courtesy of the Cyber Hymnal™
T:Public Domain Courtesy of the Cyber Hymnal™
C:Philip Paul  Bliss
Z:Public Domain
Z:Courtesy of the Cyber Hymnal™
%%score ( 1 2 ) ( 3 4 )
L:1/8
Q:1/4=110
M:4/4
K:A
V:1 treble 
V:2 treble 
V:3 bass 
V:4 bass 
V:1
 [Ec]2 [DB]2 [CA]2 [CE]2 | [Ec][Ec] [DB]2 [CA]2 [CE]2 | [EG]2 [EA]2 [EB]2 E2 | %3
w: 1.~Hear the words our|Sav- ior hath spo- ken,|Words of life, un-|
w: 2.~All in vain we|hear His com- mand- ments,|All in vain His|
w: 3.~They with joy may|en- ter the ci- ty,|Free from sin, from|
 [EA][EA] [EB]2 [Ec]4 | [Ec][Ec] [DB]2 [CA][CA] [CE]2 | [Ec][Ec] [DB]2 [CA]2 [CE]2 | %6
w: fail- ing and true;|Care- less one, prayr- less one,|hear and re- mem- ber,|
w: prom- is- es, too;|Hear- ing them, fear- ing them,|ne- ver can save us,|
w: sor- row and strife,|Sanc- ti- fied, glor- i- fied,|now and for- ev- er,|
 [DF][DF] [EG]2 [FA][FA] [Fd]2 | [Ec]2 [DB]2 [CA]4 ||"^Refrain" [EB]E E2 E2 E2 | %9
w: Je- sus says, “Bless- èd are|they that do.”||
w: Bless- èd, O bless- èd, are|they that do.|Bless- èd are they that|
w: They may have right to the|tree of life.||
 [Ec][EA] [EA]2 [EA]2 [EA]2 | [Gd][Gd] [Gd]2 (c2 e2) | [Ge][GB] [GB]2 [GB]4 | %12
w: |||
w: do His com- mand- ments,|Bless- èd are they, *|bless- èd are they;|
w: |||
 [Ac][Ac] [EB]2 [EA]2 [CE]2 | [Ec][Ec] [DB]2 [CA]2 [CE]2 | [DF][DF] z2 [DG][DG] z2 | %15
w: |||
w: Bless- èd are they that|do His com- mand- ments,|Bless- èd, bless- èd,|
w: |||
 [Ec][Ec] [DB]2 [CA]4 |] %16
w: |
w: bless- èd are they.|
w: |
V:2
 x8 | x8 | x6 E2 | x8 | x8 | x8 | x8 | x8 || x E E2 E2 E2 | x8 | x4 A4 | x8 | x8 | x8 | x8 | x8 |] %16
V:3
 [A,,A,]2 [A,,A,]2 [A,,A,]2 [A,,A,]2 | [A,,A,][A,,A,] [A,,A,]2 [A,,A,]2 [A,,A,]2 | %2
 [E,B,]2 [E,C]2 [E,D]2 [G,B,]2 | [A,C][A,C] [A,D]2 [A,E]4 | %4
 [A,,A,][A,,A,] [A,,A,]2 [A,,A,][A,,A,] [A,,A,]2 | [A,,A,][A,,A,] [A,,A,]2 [A,,A,]2 [A,,A,]2 | %6
 [D,A,][D,A,] [D,A,]2 [D,A,][D,A,] [D,A,]2 | [E,A,]2 [E,G,]2 [A,,A,]4 || %8
 [E,G,][E,G,] [E,G,]2 [E,G,]2 [E,G,]2 | A,[A,C] [A,C]2 [A,C]2 [A,C]2 | %10
 [E,B,][E,B,] [E,B,]2 (A,2 C2) | [E,B,][E,E] [E,E]2 [E,E]4 | %12
 [A,,E][A,,E] [A,,D]2 [A,,C]2 [A,,A,]2 | [A,,A,][A,,A,] [A,,A,]2 [A,,A,]2 [A,,A,]2 | %14
 [D,A,][D,A,] z2 E,E, z2 | [E,A,][E,A,] [E,G,]2 [A,,A,]4 |] %16
V:4
 x8 | x8 | x8 | x8 | x8 | x8 | x8 | x8 || x8 | A, x7 | x4 A,4 | x8 | x8 | x8 | x4 E,E, x2 | x8 |] %16

